img/logo.svg

<svg width="66" height="52" viewBox="0 0 66 52" fill="none" xmlns="http://www.w3.org/2000/svg">
<path d="M22.9467 10.5393C24.595 7.30668 29.2257 7.30668 30.874 10.5393L32.9257 14.5631C33.5707 15.8279 34.7835 16.7085 36.1885 16.9321L40.6721 17.6458C44.2526 18.2157 45.6807 22.5898 43.1231 25.1528L39.8953 28.3875C38.8953 29.3896 38.4344 30.8073 38.6545 32.2039L39.3636 36.7036C39.9276 40.2822 36.1841 42.9888 32.9489 41.3416L28.9323 39.2965C27.6623 38.6499 26.1584 38.6499 24.8884 39.2965L20.8718 41.3416C17.6366 42.9888 13.8931 40.2822 14.4571 36.7036L15.1662 32.2039C15.3863 30.8073 14.9254 29.3896 13.9254 28.3875L10.6976 25.1528C8.14002 22.5898 9.56814 18.2157 13.1486 17.6458L17.6322 16.9321C19.0372 16.7085 20.2501 15.8279 20.895 14.5631L22.9467 10.5393Z" fill="#FFE550"/>
<path d="M1.81671 33.0787L1.78209 33.0869C1.78623 33.2075 1.77971 33.6952 1.76253 34.55C1.75689 35.4021 1.75516 35.9616 1.75734 36.2284C1.7568 36.4838 1.75114 36.6917 1.74037 36.8523C1.74114 37.0101 1.74158 37.1923 1.74169 37.3989C1.73908 37.594 1.72831 37.7545 1.70937 37.8805C1.69925 37.9923 1.68913 38.1041 1.67901 38.2159C1.65605 38.4279 1.60996 38.5421 1.54073 38.5585C1.39075 38.594 1.15651 38.4793 0.838034 38.2143C0.516833 37.9379 0.33174 37.6961 0.282757 37.4889C0.233773 37.2818 0.222424 35.7652 0.248709 32.9394C0.286531 30.1108 0.212209 28.2506 0.0257429 27.3589C-0.0150767 27.1863 -0.00735167 27.0386 0.0489178 26.9159C0.107144 26.6469 0.406675 26.3937 0.947512 26.1564C1.49989 25.9162 2.3241 25.6665 3.42014 25.4071C4.52772 25.145 5.40663 24.9978 6.05686 24.9654C6.71862 24.9303 7.074 25.0164 7.12298 25.2235C7.15564 25.3617 7.0807 25.4827 6.89817 25.5867C6.71565 25.6906 6.55347 25.7776 6.41165 25.8477C6.26711 25.9062 6.07778 25.9814 5.84366 26.0732C5.60682 26.1536 5.38728 26.2298 5.18505 26.302C4.9801 26.3627 4.71442 26.4499 4.388 26.5636C4.07312 26.6745 3.78131 26.7801 3.51258 26.8801C3.24113 26.9687 2.87569 27.0977 2.41626 27.2672C1.95684 27.4367 1.65926 27.5436 1.52354 27.5878C1.54324 27.6196 1.56125 27.6701 1.57758 27.7391C1.70548 28.2801 1.77441 29.5764 1.78435 31.628C2.50783 31.4932 3.27098 31.2944 4.0738 31.0315C4.88816 30.7658 5.38764 30.6111 5.57224 30.5675C6.01065 30.4637 6.25163 30.5039 6.29517 30.6881C6.37953 31.0448 5.94841 31.4629 5.00182 31.9421C4.06675 32.4186 3.00505 32.7975 1.81671 33.0787Z" fill="#2C2C2C"/>
<path d="M13.1146 29.8945C13.0221 29.5032 12.8716 29.1499 12.663 28.8347C12.4517 28.5079 12.2059 28.2926 11.9255 28.1888C11.1812 28.5959 10.6403 29.3741 10.3029 30.5235C9.97432 31.6586 9.9148 32.6693 10.1243 33.5555C10.3339 34.4418 10.6837 34.9424 11.1738 35.0573C11.9664 34.6996 12.5369 33.969 12.8851 32.8657C13.2422 31.7481 13.3187 30.7578 13.1146 29.8945ZM8.59989 31.1271C8.79143 30.1337 9.14222 29.2729 9.65224 28.5445C10.1711 27.8019 10.7709 27.35 11.4516 27.1889C12.1438 27.0251 12.7901 27.1821 13.3903 27.6599C13.9879 28.1261 14.386 28.7794 14.5847 29.6196C14.7806 30.4482 14.7801 31.3477 14.5831 32.318C14.3834 33.2768 13.9939 34.1286 13.4146 34.8734C12.8442 35.6039 12.161 36.0633 11.3649 36.2517C10.7765 36.391 10.2222 36.2366 9.70202 35.7884C9.18185 35.3403 8.82379 34.7019 8.62786 33.8732C8.4292 33.033 8.41988 32.1176 8.59989 31.1271Z" fill="#2C2C2C"/>
<path d="M20.9564 28.0387C20.8639 27.6474 20.7133 27.2941 20.5048 26.9788C20.2935 26.6521 20.0477 26.4368 19.7673 26.333C19.0229 26.7401 18.4821 27.5183 18.1447 28.6677C17.8161 29.8028 17.7566 30.8135 17.9661 31.6997C18.1757 32.5859 18.5255 33.0865 19.0156 33.2015C19.8082 32.8437 20.3786 32.1132 20.7269 31.0099C21.084 29.8923 21.1605 28.9019 20.9564 28.0387ZM16.4417 29.2712C16.6332 28.2779 16.984 27.4171 17.494 26.6887C18.0129 25.9461 18.6126 25.4942 19.2933 25.3331C19.9856 25.1693 20.6318 25.3263 21.2321 25.804C21.8297 26.2703 22.2278 26.9235 22.4264 27.7637C22.6224 28.5924 22.6218 29.4919 22.4248 30.4622C22.2251 31.421 21.8357 32.2728 21.2564 33.0175C20.686 33.7481 20.0027 34.2075 19.2066 34.3959C18.6182 34.5352 18.064 34.3807 17.5438 33.9326C17.0236 33.4845 16.6656 32.8461 16.4696 32.0174C16.271 31.1772 16.2617 30.2618 16.4417 29.2712Z" fill="#2C2C2C"/>
<path d="M29.1418 17.8978C29.3264 17.8542 29.5922 17.9736 29.9392 18.256C30.295 18.5243 30.5083 18.808 30.5791 19.1073C30.6498 19.4065 30.707 20.2924 30.7506 21.7648C30.7914 23.2257 30.7984 24.7494 30.7714 26.3357C30.7353 29.8931 30.5846 31.7032 30.3193 31.766C30.1577 31.8042 29.9558 31.7487 29.7134 31.5995C29.4798 31.436 29.3453 31.2794 29.3099 31.1298C29.2746 30.9802 29.2442 30.6714 29.2188 30.2034C28.3603 31.6219 27.5099 32.4309 26.6677 32.6302C26.16 32.7503 25.6441 32.6293 25.1199 32.2673C24.6073 31.9024 24.2924 31.4726 24.1754 30.9777C24.0067 30.2641 23.997 29.3731 24.1465 28.3046C24.3047 27.222 24.652 26.1918 25.1884 25.2141C25.7247 24.2364 26.4025 23.6507 27.2216 23.4568C28.0408 23.2629 28.7275 23.6169 29.2819 24.5188C29.2934 21.9395 29.1606 19.9352 28.8836 18.5059C28.8019 18.1606 28.888 17.9579 29.1418 17.8978ZM29.2424 26.8252C29.0955 26.2037 28.862 25.7059 28.5422 25.3319C28.2338 24.9552 27.9296 24.8024 27.6297 24.8734C27.1336 24.9908 26.698 25.4159 26.3231 26.1488C25.9481 26.8817 25.6988 27.682 25.575 28.5499C25.4601 29.4036 25.4707 30.1181 25.6068 30.6936C25.6557 30.9008 25.7702 31.0499 25.9501 31.141C26.13 31.2321 26.3238 31.2531 26.5315 31.204C26.9815 31.0975 27.511 30.6319 28.12 29.8071C28.7406 28.9797 29.1206 28.0876 29.2599 27.131L29.2628 26.9115L29.2424 26.8252Z" fill="#2C2C2C"/>
<path d="M40.289 25.7787C40.5121 26.7225 40.273 27.6177 39.5716 28.4643C38.8675 29.2994 37.9617 29.848 36.8541 30.1101C35.7581 30.3695 34.7857 30.3018 33.9371 29.9071C33.0857 29.5009 32.6001 29.0446 32.4804 28.5382C32.3988 28.1929 32.4618 27.9957 32.6694 27.9466C32.854 27.9029 33.2828 28.0931 33.9557 28.5172C34.2096 28.6637 34.53 28.7824 34.917 28.8731C35.3154 28.9611 35.7108 28.9587 36.1031 28.8659C36.9107 28.6747 37.577 28.2983 38.1021 27.7365C38.6387 27.172 38.8498 26.648 38.7355 26.1646C38.662 25.8538 38.3605 25.5059 37.8308 25.1208C37.3012 24.7357 36.7322 24.3903 36.1239 24.0846C35.5244 23.7646 34.9584 23.4063 34.4261 23.0097C33.8937 22.6131 33.5935 22.2709 33.5255 21.9832C33.4575 21.6954 33.443 21.3768 33.4822 21.0272C33.5214 20.6776 33.5925 20.4116 33.6956 20.2292C34.0285 19.6278 34.619 19.008 35.4671 18.3698C36.3268 17.7288 37.0796 17.3319 37.7257 17.179C38.0603 17.0998 38.3688 17.1422 38.6513 17.3063C38.9337 17.4704 39.1035 17.6733 39.1607 17.915C39.1879 18.0301 39.0885 18.1508 38.8625 18.2772C38.6366 18.4036 38.2892 18.5831 37.8203 18.8156C37.3602 19.0338 36.9575 19.2628 36.6121 19.5026C35.4051 20.323 34.8573 20.9691 34.9689 21.441C35.0288 21.6942 35.8711 22.2423 37.4958 23.0854C38.1211 23.4114 38.7122 23.8245 39.269 24.3247C39.8347 24.8106 40.1747 25.2953 40.289 25.7787Z" fill="#2C2C2C"/>
<path d="M44.2624 26.6432C44.3142 26.8619 44.4669 26.9412 44.7207 26.8811C45.1592 26.7773 45.6613 26.5309 46.2272 26.1417C46.8018 25.7384 47.1238 25.5285 47.193 25.5121C47.4007 25.4629 47.5304 25.5477 47.5821 25.7664C47.661 26.1002 47.4061 26.5677 46.8172 27.1688C46.2399 27.7673 45.6686 28.1334 45.1033 28.2672C44.5495 28.3983 44.0526 28.3579 43.6127 28.146C43.17 27.9226 42.9106 27.6498 42.8344 27.3275C42.7582 27.0052 42.7308 26.5803 42.7522 26.0526C42.7709 25.5134 42.8106 24.8052 42.8712 23.9279C42.9406 23.0364 42.9864 22.3025 43.0085 21.726C42.4962 21.981 42.1477 22.1303 41.9631 22.174C41.7785 22.2177 41.5721 22.1693 41.344 22.0288C41.1247 21.8741 40.9946 21.7104 40.9538 21.5378C40.8885 21.2615 41.5758 20.8193 43.0158 20.2112C42.9976 19.2067 42.9014 18.3362 42.7273 17.5996C42.6456 17.2543 42.7202 17.0544 42.9509 16.9997C43.147 16.9533 43.4193 17.0226 43.7676 17.2075C44.1132 17.381 44.3227 17.6231 44.3962 17.9338C44.4696 18.2446 44.5008 18.8145 44.4897 19.6436C45.1338 19.4304 45.6519 19.2774 46.0442 19.1846C46.7364 19.0207 47.1179 19.0884 47.1887 19.3877C47.2295 19.5603 47.0731 19.7493 46.7196 19.9545C46.3776 20.1569 45.6353 20.521 44.4925 21.0467C44.4652 22.0133 44.4058 23.1272 44.3142 24.3886C44.2198 25.6384 44.2026 26.39 44.2624 26.6432Z" fill="#2C2C2C"/>
<path d="M52.0037 17.5919C52.5228 17.469 53.0642 17.6204 53.6278 18.0461C54.1887 18.4603 54.5195 18.8803 54.6202 19.3062C54.7181 19.7205 54.6746 20.1805 54.4896 20.6861C54.6689 20.826 54.7735 20.9592 54.8034 21.0858C54.8796 21.4081 54.9352 21.9783 54.9703 22.7965C55.0169 23.6119 55.0515 24.1445 55.074 24.3944C55.1081 24.6416 55.1312 24.8427 55.1435 24.9978C55.1531 25.1414 55.1569 25.2863 55.155 25.4326C55.1769 25.7313 55.107 25.8997 54.9455 25.938C54.7379 25.9871 54.5226 25.8497 54.2998 25.5256C54.0858 25.1874 53.8993 24.7332 53.7401 24.1632C53.0208 25.7068 52.2227 26.5823 51.3459 26.7899C50.8152 26.9154 50.2372 26.8152 49.6118 26.4892C48.9953 26.149 48.63 25.7372 48.5157 25.2538C48.3524 24.5632 48.4048 23.6514 48.673 22.5184C48.9384 21.3739 49.3811 20.309 50.0009 19.3238C50.6208 18.3385 51.2883 17.7612 52.0037 17.5919ZM53.5182 20.442C53.2651 19.3716 52.9251 18.8869 52.4982 18.988C52.0483 19.0945 51.5995 19.541 51.152 20.3275C50.7017 21.1025 50.3641 21.942 50.1393 22.8459C49.9144 23.7499 49.8578 24.4378 49.9694 24.9097C50.0156 25.1054 50.1345 25.2474 50.3259 25.3358C50.5147 25.4127 50.7186 25.4252 50.9379 25.3733C51.4801 25.245 52.0059 24.7377 52.5151 23.8515C53.0217 22.9538 53.2838 21.9498 53.3015 20.8397C53.2953 20.6588 53.3689 20.532 53.5222 20.4593L53.5182 20.442Z" fill="#2C2C2C"/>
<path d="M49.9694 32.4588C49.4748 32.5812 49.0852 32.9568 48.9227 33.4385C45.8243 42.6232 37.1465 49.2285 26.9385 49.2285C20.747 49.2285 15.1184 46.7985 10.9563 42.8368C10.5871 42.4855 10.0661 42.3345 9.57077 42.4571C8.52999 42.7147 8.13539 43.9719 8.90588 44.7157C13.578 49.2259 19.9346 52 26.9385 52C38.4422 52 48.1995 44.5164 51.6154 34.148C51.9506 33.1307 51.0116 32.2009 49.9694 32.4588Z" fill="#BBF330"/>
<path d="M3.03033 22.9912C3.59389 22.8517 4.01168 22.3831 4.11523 21.8133C6.08462 10.9767 15.5611 2.77153 26.9385 2.77153C34.3374 2.77153 40.9324 6.24161 45.1816 11.6488C45.5401 12.105 46.1293 12.3246 46.6933 12.185C47.6441 11.9497 48.0743 10.8481 47.4751 10.0752C42.7228 3.94518 35.291 0 26.9385 0C14.1287 0 3.48437 9.27939 1.35012 21.4883C1.18176 22.4513 2.07888 23.2267 3.03033 22.9912Z" fill="#BBF330"/>
<path d="M66 8.66363C59.8607 20.4304 57.1656 12.6692 48.5234 17.2283C49.3878 3.56927 58.5409 11.8802 66 8.66363Z" fill="#BBF330"/>
</svg>

<svg xmlns="http://www.w3.org/2000/svg" width="66" height="52" fill="none">
  <path fill="#FFE550" d="M22.947 10.54c1.648-3.233 6.279-3.233 7.927 0l2.052 4.023a4.446 4.446 0 0 0 3.262 2.37l4.484.713c3.58.57 5.009 4.944 2.451 7.507l-3.228 3.235a4.427 4.427 0 0 0-1.24 3.816l.709 4.5c.564 3.578-3.18 6.285-6.415 4.638l-4.017-2.045a4.458 4.458 0 0 0-4.044 0l-4.016 2.045c-3.235 1.647-6.979-1.06-6.415-4.638l.71-4.5a4.427 4.427 0 0 0-1.242-3.817l-3.227-3.234c-2.558-2.563-1.13-6.937 2.45-7.507l4.484-.714a4.446 4.446 0 0 0 3.263-2.369l2.052-4.024Z"/>
  <path fill="#2C2C2C" d="m1.817 33.079-.035.008c.004.12-.002.608-.02 1.463-.005.852-.007 1.412-.005 1.678 0 .256-.006.464-.017.624l.002.547a3.675 3.675 0 0 1-.033.481l-.03.336c-.023.212-.069.326-.138.343-.15.035-.384-.08-.703-.345-.321-.276-.506-.518-.555-.725-.05-.207-.06-1.724-.034-4.55.038-2.828-.037-4.688-.223-5.58a.674.674 0 0 1 .023-.443c.058-.27.358-.522.899-.76.552-.24 1.376-.49 2.472-.749 1.108-.262 1.987-.41 2.637-.442.662-.035 1.017.051 1.066.259.033.138-.042.259-.225.363a9.59 9.59 0 0 1-.486.26c-.145.06-.334.134-.568.226a44.8 44.8 0 0 0-.659.229c-.205.06-.47.148-.797.262-.315.11-.607.216-.875.316-.272.089-.637.218-1.097.387-.46.17-.757.277-.892.32.02.033.037.083.054.152.127.541.196 1.837.206 3.889a17.946 17.946 0 0 0 2.29-.596c.814-.266 1.314-.42 1.498-.465.439-.103.68-.063.723.121.085.357-.347.775-1.293 1.254-.935.477-1.997.855-3.185 1.137ZM13.115 29.895a3.262 3.262 0 0 0-.452-1.06c-.211-.327-.457-.542-.738-.646-.744.407-1.285 1.185-1.622 2.334-.329 1.136-.388 2.146-.179 3.033.21.886.56 1.386 1.05 1.501.792-.357 1.363-1.088 1.711-2.191.357-1.118.434-2.108.23-2.971ZM8.6 31.127c.191-.993.542-1.854 1.052-2.582.52-.743 1.119-1.195 1.8-1.356.692-.164 1.338-.007 1.938.47.598.467.996 1.12 1.195 1.96.196.83.195 1.729-.002 2.699-.2.959-.59 1.81-1.168 2.555-.57.73-1.254 1.19-2.05 1.379-.588.139-1.143-.015-1.663-.464-.52-.448-.878-1.086-1.074-1.915-.199-.84-.208-1.755-.028-2.746ZM20.956 28.039a3.266 3.266 0 0 0-.451-1.06c-.211-.327-.457-.542-.738-.646-.744.407-1.285 1.185-1.622 2.335-.329 1.135-.388 2.146-.179 3.032.21.886.56 1.387 1.05 1.502.792-.358 1.363-1.089 1.71-2.192.358-1.118.434-2.108.23-2.971Zm-4.514 1.232c.191-.993.542-1.854 1.052-2.582.519-.743 1.119-1.195 1.8-1.356.692-.164 1.338-.007 1.938.471.598.466.996 1.12 1.194 1.96.196.828.196 1.728-.001 2.698a6.14 6.14 0 0 1-1.169 2.555c-.57.731-1.253 1.19-2.05 1.379-.588.14-1.142-.015-1.662-.463-.52-.449-.878-1.087-1.074-1.916-.199-.84-.208-1.755-.028-2.746ZM29.142 17.898c.184-.044.45.076.797.358.356.268.57.552.64.851.07.3.128 1.185.172 2.658.04 1.46.047 2.984.02 4.57-.036 3.558-.186 5.368-.452 5.431-.161.038-.363-.017-.606-.166-.233-.164-.368-.32-.403-.47-.035-.15-.066-.459-.091-.927-.859 1.419-1.71 2.228-2.551 2.427-.508.12-1.024 0-1.548-.363-.513-.365-.828-.794-.945-1.29-.168-.713-.178-1.604-.029-2.672a9.12 9.12 0 0 1 1.042-3.09c.537-.979 1.215-1.564 2.034-1.758.819-.194 1.505.16 2.06 1.062.011-2.58-.121-4.584-.398-6.013-.082-.345.004-.548.258-.608Zm.1 8.927c-.146-.621-.38-1.12-.7-1.493-.308-.377-.612-.53-.912-.459-.496.118-.932.543-1.307 1.276a7.58 7.58 0 0 0-.748 2.4c-.115.855-.104 1.57.032 2.145a.64.64 0 0 0 .343.447c.18.091.374.112.582.063.45-.107.979-.572 1.588-1.397.62-.827 1-1.72 1.14-2.676l.003-.22-.02-.086ZM40.289 25.779c.223.944-.016 1.839-.717 2.685-.705.835-1.61 1.384-2.718 1.646-1.096.26-2.068.192-2.917-.203-.851-.406-1.337-.862-1.457-1.369-.081-.345-.018-.542.19-.591.184-.044.613.146 1.286.57.254.147.574.265.961.356.398.088.794.086 1.186-.007.808-.191 1.474-.568 2-1.13.536-.564.747-1.088.633-1.571-.074-.311-.375-.66-.905-1.044-.53-.385-1.099-.73-1.707-1.036a13.39 13.39 0 0 1-1.698-1.075c-.532-.397-.833-.74-.9-1.027a2.793 2.793 0 0 1-.044-.956c.04-.35.11-.615.214-.798.333-.601.923-1.221 1.771-1.86.86-.64 1.613-1.037 2.259-1.19.334-.08.643-.037.925.127.283.164.452.367.51.609.027.115-.072.236-.299.362a25.81 25.81 0 0 1-1.042.539c-.46.218-.862.447-1.208.687-1.207.82-1.755 1.466-1.643 1.938.06.253.902.801 2.527 1.644.625.326 1.216.74 1.773 1.24.566.486.906.97 1.02 1.454ZM44.262 26.643c.052.219.205.298.459.238.438-.104.94-.35 1.506-.74.575-.403.897-.612.966-.629.208-.05.337.036.39.254.078.334-.177.802-.766 1.403-.577.598-1.148.964-1.714 1.098-.553.131-1.05.09-1.49-.121-.443-.223-.702-.496-.779-.819-.076-.322-.103-.747-.082-1.274.019-.54.059-1.248.12-2.125.069-.892.114-1.626.136-2.202-.512.255-.86.404-1.045.448-.184.044-.39-.005-.619-.145-.22-.155-.35-.319-.39-.491-.066-.276.622-.719 2.062-1.327-.018-1.004-.115-1.875-.289-2.611-.081-.346-.007-.546.224-.6.196-.047.468.023.817.207.345.174.555.416.628.727.074.31.105.88.094 1.71a19.514 19.514 0 0 1 1.554-.46c.692-.163 1.074-.096 1.145.204.04.172-.116.361-.47.566-.341.203-1.084.567-2.227 1.093-.027.966-.086 2.08-.178 3.342-.094 1.25-.111 2.001-.052 2.254ZM52.004 17.592c.519-.123 1.06.028 1.624.454.56.414.892.834.992 1.26.098.415.055.874-.13 1.38.179.14.283.273.313.4.077.322.132.892.167 1.71.047.816.081 1.349.104 1.598.034.248.057.449.07.604.01.143.013.288.011.435.022.298-.048.467-.21.505-.207.05-.422-.088-.645-.412-.214-.339-.4-.793-.56-1.363-.72 1.544-1.517 2.42-2.394 2.627-.53.125-1.109.025-1.734-.3-.617-.341-.982-.753-1.096-1.236-.164-.69-.111-1.603.157-2.736.265-1.144.708-2.209 1.328-3.194.62-.986 1.287-1.563 2.003-1.732Zm1.514 2.85c-.253-1.07-.593-1.555-1.02-1.454-.45.107-.898.553-1.346 1.34a9.592 9.592 0 0 0-1.013 2.518c-.225.904-.281 1.592-.17 2.064a.605.605 0 0 0 .357.426c.189.077.393.09.612.037.542-.128 1.068-.635 1.577-1.521.507-.898.769-1.902.786-3.012-.006-.181.068-.308.221-.38l-.004-.018Z"/>
  <path fill="#BBF330" d="M49.97 32.459a1.492 1.492 0 0 0-1.047.98c-3.099 9.184-11.776 15.79-21.985 15.79-6.191 0-11.82-2.43-15.982-6.392a1.495 1.495 0 0 0-1.385-.38c-1.041.258-1.436 1.515-.665 2.259A25.88 25.88 0 0 0 26.938 52c11.504 0 21.262-7.484 24.677-17.852.336-1.017-.603-1.947-1.646-1.69ZM3.03 22.991c.564-.14.982-.608 1.085-1.178C6.085 10.977 15.561 2.772 26.94 2.772c7.398 0 13.993 3.47 18.243 8.877.358.456.947.676 1.511.536.951-.235 1.381-1.337.782-2.11C42.723 3.945 35.291 0 26.938 0 14.129 0 3.485 9.28 1.35 21.488c-.168.963.729 1.739 1.68 1.503ZM66 8.664c-6.14 11.766-8.834 4.005-17.477 8.564C49.388 3.57 58.541 11.88 66 8.664Z"/>
</svg>
